resources/svg/paw.svg

<svg xmlns="http://www.w3.org/2000/svg" viewBox="0 0 15 15" fill="currentColor"><path d="M5 0C3.89543 0 3 0.895431 3 2V3C3 4.10457 3.89543 5 5 5C6.10457 5 7 4.10457 7 3V2C7 0.895431 6.10457 0 5 0Z" fill="black"/><path d="M10 0C8.89543 0 8 0.895431 8 2V3C8 4.10457 8.89543 5 10 5C11.1046 5 12 4.10457 12 3V2C12 0.895431 11.1046 0 10 0Z" fill="black"/><path d="M2 5C0.895431 5 0 5.89543 0 7V7.5C0 8.60457 0.895431 9.5 2 9.5C3.10457 9.5 4 8.60457 4 7.5V7C4 5.89543 3.10457 5 2 5Z" fill="black"/><path d="M13 5C11.8954 5 11 5.89543 11 7V7.5C11 8.60457 11.8954 9.5 13 9.5C14.1046 9.5 15 8.60457 15 7.5V7C15 5.89543 14.1046 5 13 5Z" fill="black"/><path d="M9.61273 7.77893C8.51793 6.44953 6.48207 6.44953 5.38727 7.77893L2.46943 11.322C1.2614 12.7889 2.30486 15 4.20516 15C4.47668 15 4.74447 14.9368 4.98732 14.8154L5.34699 14.6355C6.70234 13.9578 8.29766 13.9578 9.65301 14.6355L10.0127 14.8154C10.2555 14.9368 10.5233 15 10.7948 15C12.6951 15 13.7386 12.7889 12.5306 11.322L9.61273 7.77893Z" fill="black"/></svg>

<svg xmlns="http://www.w3.org/2000/svg" viewBox="0 0 15 15" fill="currentColor"><path d="M5 0a2 2 0 00-2 2v1a2 2 0 104 0V2a2 2 0 00-2-2zm5 0a2 2 0 00-2 2v1a2 2 0 104 0V2a2 2 0 00-2-2zM2 5a2 2 0 00-2 2v.5a2 2 0 104 0V7a2 2 0 00-2-2zm11 0a2 2 0 00-2 2v.5a2 2 0 104 0V7a2 2 0 00-2-2zM9.613 7.779a2.737 2.737 0 00-4.226 0L2.47 11.322C1.261 12.789 2.305 15 4.205 15c.272 0 .54-.063.782-.185l.36-.18a4.814 4.814 0 014.306 0l.36.18c.242.122.51.185.782.185 1.9 0 2.944-2.211 1.736-3.678L9.613 7.779z" fill="currentColor"/></svg>
